packages/form-js-viewer/src/render/components/icons/Checkbox.svg

<svg xmlns="http://www.w3.org/2000/svg" width="54" height="54" viewBox="0 0 54 54" fill="currentcolor">
  <path d="M34,18 L20,18 C18.89,18 18,18.9 18,20 L18,34 C18,35.1 18.89,36 20,36 L34,36 C35.11,36 36,35.1 36,34 L36,20 C36,18.9 35.11,18 34,18 Z M25,32 L20,27 L21.41,25.59 L25,29.17 L32.59,21.58 L34,23 L25,32 Z"/>
</svg>

<svg xmlns="http://www.w3.org/2000/svg" width="54" height="54" fill="currentcolor"><path d="M34 18H20a2 2 0 0 0-2 2v14a2 2 0 0 0 2 2h14a2 2 0 0 0 2-2V20a2 2 0 0 0-2-2zm-9 14-5-5 1.41-1.41L25 29.17l7.59-7.59L34 23l-9 9z"/></svg>
